icons/op-duplicate-24.svg

<svg width="24" height="24" viewBox="0 0 24 24" fill="none" xmlns="http://www.w3.org/2000/svg">
<path d="M19 16.9688H17.3363V15.2188H15.9238V16.9688H14.1031V18.4062H15.9238V20H17.3363V18.4062H19V16.9688ZM6.44395 5.4375H13.0359L15.8924 8.3125V13.3438H17.3363V7.71875L13.6323 4H5V20H12.4081V18.5625H6.44395V5.4375Z" fill="black"/>
</svg>

<svg xmlns="http://www.w3.org/2000/svg" width="24" height="24" viewBox="0 0 24 24"><path d="M19 16.969h-1.664v-1.75h-1.412v1.75h-1.821v1.437h1.821V20h1.412v-1.594H19v-1.437ZM6.444 5.438h6.592l2.856 2.874v5.032h1.444V7.719L13.632 4H5v16h7.408v-1.438H6.444V5.438Z"/></svg>
